images_elementary_svg/cmd/32/pl/underline.svg

<svg height="32" width="32" xmlns="http://www.w3.org/2000/svg" xmlns:xlink="http://www.w3.org/1999/xlink"><radialGradient id="a" cx="10.903473" cy="14.502974" gradientTransform="matrix(-1.22854 .08099145 -.11139838 -2.3794318 27.252475 45.208236)" gradientUnits="userSpaceOnUse" r="6.225339" xlink:href="#b"/><linearGradient id="b"><stop offset="0" stop-color="#555"/><stop offset="1" stop-color="#666"/></linearGradient><linearGradient id="c" gradientUnits="userSpaceOnUse" x1="12.761326" x2="12.761326" xlink:href="#b" y1="33.638302" y2="11.638302"/><g transform="matrix(1.33333 0 0 1.33333 .163341 -11.350962)"><path d="m16.244427 18.384126q0 1.010828-.311024 1.9439-.299916.933072-.99972 1.655092-.699804.710912-1.855036 1.144124-1.144124.422104-2.83254.422104h-1.6662006v6.320453h-2.0660881v-16.239897h4.0210967q1.488472 0 2.565948.322132 1.077476.311024 1.77728.921964.699804.599832 1.033044 1.488472.33324.88864.33324 2.021656zm-7.6645206 3.410156h1.4329326q1.033044 0 1.799496-.177728.77756-.177728 1.27742-.566508.510968-.399888.766452-1.021936.255484-.633156.255484-1.532904 0-1.577336-.910856-2.33268-.910856-.766452-2.843648-.766452h-1.7772806z" fill="url(#a)" stroke="#000" stroke-opacity=".6" stroke-width=".755445" transform="scale(1.0809262 .92513258)"/><path d="m1.752716 29.885566.017578 2.234376h19.504467l-.01758-2.234376z" fill="url(#c)"/><path d="m1.752716 29.885566.00414 2.252736h19.50447l-.0041-2.252736z" fill="none" opacity=".61" stroke="#000" stroke-width=".750002"/><g fill="#fff"><path d="m2.1302176 30.242557-.00272.769013h18.7500494l-.01548-.759479z" opacity=".2"/><path d="m9.5507812 5.4609375v1.5h5.7949218c1.430155 0 2.663957.1335361 3.699219.3984375 1.035261.2557669 1.88816.6343195 2.560547 1.1367188.672386.4932646 1.17005 1.105175 1.490234 1.8359372.22845.521396.370095 1.097004.435547 1.720703.026039-.2398.044922-.48119.044922-.726562 0-.931722-.160285-1.7633782-.480469-2.4941408-.320184-.7307625-.817848-1.3426728-1.490234-1.8359374-.672387-.5023993-1.525286-.8809519-2.560547-1.1367188-1.035262-.2649014-2.269064-.3984375-3.699219-.3984375zm10.8847658 6.7558595c-.057019.417522-.147319.807073-.302735 1.136719-.245474.511533-.612566.932875-1.103515 1.261718-.480276.319709-1.094701.551113-1.841797.697266-.736423.146153-1.60118.220703-2.59375.220703h-2.064453v1.5h2.064453c.99257 0 1.857327-.074551 2.59375-.220703.747096-.146152 1.361521-.377557 1.841797-.697266.490949-.328843.858041-.750185 1.103515-1.261718.245475-.520669.369141-1.150728.369141-1.890625 0-.265796-.029658-.508682-.066406-.746094z" opacity=".2" transform="matrix(.75000188 0 0 .75000188 -.122506 8.513243)"/></g></g></svg>

<?xml version="1.0" encoding="UTF-8" standalone="no"?>
<svg
   xmlns:dc="http://purl.org/dc/elements/1.1/"
   xmlns:cc="http://creativecommons.org/ns#"
   xmlns:rdf="http://www.w3.org/1999/02/22-rdf-syntax-ns#"
   xmlns:svg="http://www.w3.org/2000/svg"
   xmlns="http://www.w3.org/2000/svg"
   xmlns:xlink="http://www.w3.org/1999/xlink"
   xmlns:sodipodi="http://sodipodi.sourceforge.net/DTD/sodipodi-0.dtd"
   xmlns:inkscape="http://www.inkscape.org/namespaces/inkscape"
   height="32"
   width="32"
   version="1.1"
   id="svg43"
   sodipodi:docname="underline.svg"
   inkscape:version="0.92.4 (unknown)"
   inkscape:export-filename="/home/rizmut/Dokumen/Rizmut/Github/libreoffice-style-elementary/images_elementary/cmd/32/pl/underline.png"
   inkscape:export-xdpi="96"
   inkscape:export-ydpi="96">
  <metadata
     id="metadata49">
    <rdf:RDF>
      <cc:Work
         rdf:about="">
        <dc:format>image/svg+xml</dc:format>
        <dc:type
           rdf:resource="http://purl.org/dc/dcmitype/StillImage" />
        <dc:title />
      </cc:Work>
    </rdf:RDF>
  </metadata>
  <defs
     id="defs47">
    <radialGradient
       inkscape:collect="always"
       xlink:href="#a"
       id="radialGradient844"
       cx="10.903473"
       cy="14.502974"
       fx="10.903473"
       fy="14.502974"
       r="6.2253389"
       gradientTransform="matrix(-1.22854,0.08099145,-0.11139838,-2.3794318,27.252475,45.208236)"
       gradientUnits="userSpaceOnUse" />
  </defs>
  <sodipodi:namedview
     pagecolor="#ffffff"
     bordercolor="#666666"
     borderopacity="1"
     objecttolerance="10"
     gridtolerance="10"
     guidetolerance="10"
     inkscape:pageopacity="0"
     inkscape:pageshadow="2"
     inkscape:window-width="1366"
     inkscape:window-height="714"
     id="namedview45"
     showgrid="true"
     inkscape:zoom="5.2149125"
     inkscape:cx="-40.129688"
     inkscape:cy="6.1693789"
     inkscape:window-x="0"
     inkscape:window-y="28"
     inkscape:window-maximized="1"
     inkscape:current-layer="g41">
    <inkscape:grid
       type="xygrid"
       id="grid832" />
  </sodipodi:namedview>
  <linearGradient
     id="a">
    <stop
       offset="0"
       stop-color="#555"
       id="stop2" />
    <stop
       offset="1"
       stop-color="#666"
       id="stop4" />
  </linearGradient>
  <linearGradient
     id="b"
     gradientUnits="userSpaceOnUse"
     x1="12.761326"
     x2="12.761326"
     xlink:href="#a"
     y1="33.638302"
     y2="11.638302" />
  <linearGradient
     id="c">
    <stop
       offset="0"
       id="stop8" />
    <stop
       offset="1"
       stop-opacity="0"
       id="stop10" />
  </linearGradient>
  <radialGradient
     id="d"
     cx="40"
     cy="43.5"
     gradientTransform="matrix(.87733142 0 0 .75 -17.142285 -3.625)"
     gradientUnits="userSpaceOnUse"
     r="2"
     xlink:href="#c" />
  <radialGradient
     id="e"
     cx="9"
     cy="43.5"
     gradientTransform="matrix(.87733142 0 0 .75 -1.350319 -3.625)"
     gradientUnits="userSpaceOnUse"
     r="2"
     xlink:href="#c" />
  <linearGradient
     id="f"
     gradientTransform="matrix(.87733142 0 0 1 -5.736976 -14.5)"
     gradientUnits="userSpaceOnUse"
     x1="25"
     x2="25"
     y1="45"
     y2="42">
    <stop
       offset="0"
       stop-opacity="0"
       id="stop15" />
    <stop
       offset=".5"
       id="stop17" />
    <stop
       offset="1"
       stop-opacity="0"
       id="stop19" />
  </linearGradient>
  <linearGradient
     id="g"
     gradientTransform="matrix(.98244026 0 0 1.0032268 .121605 8.047357)"
     gradientUnits="userSpaceOnUse"
     x1="12.02772"
     x2="11.427851"
     xlink:href="#a"
     y1="25.544678"
     y2="4.392136" />
  <g
     transform="matrix(1.33333 0 0 1.33333 .163341 -11.350962)"
     id="g41">
    <g
       aria-label="P"
       transform="scale(1.0809262,0.92513258)"
       style="font-style:normal;font-weight:normal;font-size:22.74918556px;line-height:1.25;font-family:sans-serif;letter-spacing:0px;word-spacing:0px;fill:url(#radialGradient844);fill-opacity:1;stroke:#000000;stroke-width:0.75544477;stroke-miterlimit:4;stroke-dasharray:none;stroke-opacity:0.6"
       id="text836">
      <path
         d="m 16.244427,18.384126 q 0,1.010828 -0.311024,1.9439 -0.299916,0.933072 -0.99972,1.655092 -0.699804,0.710912 -1.855036,1.144124 -1.144124,0.422104 -2.83254,0.422104 H 8.5799064 v 6.320453 H 6.5138183 V 13.629902 h 4.0210967 q 1.488472,0 2.565948,0.322132 1.077476,0.311024 1.77728,0.921964 0.699804,0.599832 1.033044,1.488472 0.33324,0.88864 0.33324,2.021656 z m -7.6645206,3.410156 h 1.4329326 q 1.033044,0 1.799496,-0.177728 0.77756,-0.177728 1.27742,-0.566508 0.510968,-0.399888 0.766452,-1.021936 0.255484,-0.633156 0.255484,-1.532904 0,-1.577336 -0.910856,-2.33268 -0.910856,-0.766452 -2.843648,-0.766452 H 8.5799064 Z"
         style="font-style:normal;font-variant:normal;font-weight:normal;font-stretch:normal;font-family:'Droid Sans';-inkscape-font-specification:'Droid Sans';fill:url(#radialGradient844);fill-opacity:1;stroke:#000000;stroke-width:0.75544477;stroke-miterlimit:4;stroke-dasharray:none;stroke-opacity:0.6"
         id="path837" />
    </g>
    <path
       d="m1.752716 29.885566.017578 2.234376h19.504467l-.01758-2.234376z"
       fill="url(#b)"
       id="path25" />
    <path
       d="m1.752716 29.885566.00414 2.252736h19.50447l-.0041-2.252736z"
       fill="none"
       opacity=".61"
       stroke="#000"
       stroke-width=".750002"
       id="path27" />
    <path
       d="m2.1302176 30.242557-.00272.769013h18.7500494l-.01548-.759479z"
       fill="#fff"
       opacity=".2"
       id="path29" />
    <path
       style="font-style:normal;font-weight:normal;font-size:22.74918556px;line-height:1.25;font-family:sans-serif;letter-spacing:0px;word-spacing:0px;fill:#ffffff;fill-opacity:1;stroke:none;stroke-width:1.00725722;stroke-miterlimit:4;stroke-dasharray:none;stroke-opacity:0.6;opacity:0.2"
       d="M 9.5507812 5.4609375 L 9.5507812 6.9609375 L 15.345703 6.9609375 C 16.775858 6.9609375 18.00966 7.0944736 19.044922 7.359375 C 20.080183 7.6151419 20.933082 7.9936945 21.605469 8.4960938 C 22.277855 8.9893584 22.775519 9.6012688 23.095703 10.332031 C 23.324153 10.853427 23.465798 11.429035 23.53125 12.052734 C 23.557289 11.812934 23.576172 11.571544 23.576172 11.326172 C 23.576172 10.39445 23.415887 9.5627938 23.095703 8.8320312 C 22.775519 8.1012687 22.277855 7.4893584 21.605469 6.9960938 C 20.933082 6.4936945 20.080183 6.1151419 19.044922 5.859375 C 18.00966 5.5944736 16.775858 5.4609375 15.345703 5.4609375 L 9.5507812 5.4609375 z M 20.435547 12.216797 C 20.378528 12.634319 20.288228 13.02387 20.132812 13.353516 C 19.887338 13.865049 19.520246 14.286391 19.029297 14.615234 C 18.549021 14.934943 17.934596 15.166347 17.1875 15.3125 C 16.451077 15.458653 15.58632 15.533203 14.59375 15.533203 L 12.529297 15.533203 L 12.529297 17.033203 L 14.59375 17.033203 C 15.58632 17.033203 16.451077 16.958652 17.1875 16.8125 C 17.934596 16.666348 18.549021 16.434943 19.029297 16.115234 C 19.520246 15.786391 19.887338 15.365049 20.132812 14.853516 C 20.378287 14.332847 20.501953 13.702788 20.501953 12.962891 C 20.501953 12.697095 20.472295 12.454209 20.435547 12.216797 z "
       transform="matrix(0.75000188,0,0,0.75000188,-0.12250606,8.5132428)"
       id="text908" />
  </g>
</svg>
